!!!!SEGMENT: pl-wtm--r-2009_smietanski-emil-wladyslaw--polka-de-concert-op-3.krn
!!!cenid: 18xx:1994
!!!COM: Śmietański, Emil Władysław
!!!COM-rismid: pe50041781
!!!CDT: 1845-1886
!!!CNT: Polish
!!!OTL: Polka de concert op. 3
!!!PDT: 1865
!!!AGN: Secular; Polka
!!!SMS-siglum: PL-Wtm
!!!SMS-shelfmark: R 2009
!!!SMS-shelfwork: W
!!!SMS-variant:
!!!SMS-altvar:
!!!NIFC-rismid: 1001112206
!!!URL-scan: http://repozytorium.nifc.pl/skany/pl-wtm-nut--r2009
!!!ONB-nifc:
!!!key:
**kern	**kern	**dynam
*part2	*part1	*part1
*staff2	*staff1	*
*Ipiano	*Ipiano	*
*I"[Piano]	*I"[Piano]	*
*I'pf	*I'pf	*
*clefF4	*clefG2	*
*k[b-e-a-d-]	*k[b-e-a-d-]	*
*A-:	*A-:	*
*M2/4	*M2/4	*
=1	=1	=1
16E-\LL	16ff\LL 16g\	p
16B-\	16ee-\	.
16d-\	16dd-\	.
16f\JJ	16g\JJ	.
8e-'\L	8cc\L 8g'\	.
8d-'\J	8b-'\J	.
=2	=2	=2
8d-\L 8AA-'\	8b-\L 8e-'\	.
8c'\J	8a-'\J	.
32qqd-/	32qqb-/	.
16c'\LL	16a-\LL	.
16Bn'\J	16g\J	.
8c'\J	8a-\J	.
=3	=3	=3
(8B-\L 8C^^\	(8en^^\L	.
8c\J)	8cc\J 8a-\)	.
(8B-\L 8C^^\	(8e^^\L	.
8c\J)	8cc\J 8g\)	.
=4	=4	=4
8B-\L 8FF'\	8cc\L 8g'\	.
8A-'\J	8f'\J	.
32qqB-/	32qqg/	.
16A-\LL	16f\LL	.
16G\J	16en\J	.
8A-\J	8f\J	.
=5	=5	=5
8G-X\L 8AAn'\	16cc\LL 16e-X'\	.
.	16f\J	.
8e-'\J	8cc\J 8g-X'\	.
(8e-\L 8BB-\	(8cc\L 8f^^\	.
8dn\J)	8b-\J)	.
=6	=6	=6
8F-X\L 8GG'\	16b-\LL 16d-'\	.
.	16e-\J	.
8d-X'\J	8b-\J 8f-X'\	.
(8d-\L 8AA-\	(8b-\L 8e-^^\	.
8c\J)	8a-\J)	.
=7	=7	=7
8Dn\L 8FF\	16a-\LL 16B-\	.
.	16c-X\J	<
8c-X\J 8Fn\	8a-\J 8dn\	.
8cn\L 8E-\	16a-\LL 16d\	.
.	16e-\J	.
8e-\J 8c\	8cc\J 8a-\	[[
!!LO:LB:g=original
=8	=8	=8
*clefG2	*	*
8a-/L 8dn/	16ff\LL 16b-\	<
.	16cc-X\J	.
8cc-X/J 8g/	8ff\J 8ddn\	.
8ccn/L 8a-/ 8e-/	8ee-T\L	.
8E-/J	16aa-\L	[
.	16ccn\JJ	.
*clefF4	*	*
=9	=9	=9
16E-\LL	16ff\LL	f
16B-\	16ee-\	.
16d-\	16dd-\	.
16f\JJ	16g\JJ	.
8e-\L	8cc\L 8g\	.
8d-\J	8b-\J	.
=10	=10	=10
8d-\L 8AA-\	8b-\L 8e-\	.
8c\J	8a-\J	.
32qqd-/	32qqb-/	.
16c\LL	16a-\LL	.
16Bn\J	16g\J	.
8c\J	8a-\J	.
=11	=11	=11
(8B-\L 8C\	(8en^^\L	p
8c\J)	8cc\J 8a-\)	.
(8B-\L 8C\	(8e^^\L	.
8c\J)	8cc\J 8g\)	.
=12	=12	=12
8B-\L 8FF\	8cc\L 8g\	.
8A-\J	8f\J	.
32qqB-/	32qqg/	.
16A-\LL	16f\LL	.
16G\J	16en\J	.
8A-\J	8f\J	.
=13	=13	=13
8G-X\L 8AAn\	16cc\LL 16e-X\	.
.	16f\J	.
8e-\J	8cc\J 8g-X\	.
8e-\L 8BB-\	(8cc\L 8f^^\	.
8dn\J	8b-\J)	.
=14	=14	=14
8F-X\L 8GG\	16b-\LL 16d-\	.
.	16e-\J	.
8d-\J	8b-\J 8f-X\	.
8d-\L 8AA-\	(8b-\L 8e-^^\	.
8c\J	8a-\J)	.
!!LO:LB:g=original
=15	=15	=15
8Dn\L 8FF\	16a-\LL 16B-\	<
.	16c-X\J	.
8c-X\J 8Fn\	8a-\J 8dn\	.
8cn\L 8E-\	16a-\LL 16d\	.
.	16e-\	.
8e-\J 8c\	16cc\ 16a-\	.
.	16ff\JJ	.
=16	=16	=16
!LO:TX:t=P:problem=mixed beam	!	!
8d-\L 8E-\	4ee-\ 4gt\	.
8EE-/J	.	.
8c\ 8E-\ 8AA-\	8aa-\ 8a-\	[
8r	8r	.
=17||	=17||	=17||
!LO:TX:t=P:problem=mixed beam	!	!
8C/L 8EE-/	8gg\L 8ee-\ 8g\	ff
8e-\J 8G\	16ff#X\L 16f#X\	.
.	16gg\JJ 16g\	.
!LO:TX:t=P:problem=mixed beam	!	!
8Dn/L 8DDn/	8bb-\L 8ffn\ 8b-\	.
8f\J 8A-\	16aan\L 16an\	.
.	16bb-\JJ 16b-\	.
=18	=18	=18
!LO:TX:t=P:problem=mixed beam	!	!
8E-/L 8EE-/	8eee-\L 8ee-\	.
8e-\J 8G\	16bb-\L 16b-\	.
.	16gg\JJ 16g\	.
8dn\L 8E-\	8ee-\L 8e-\	.
8d-X\J 8E-\	8ee-\J 8e-\	.
=19	=19	=19
!LO:TX:t=P:problem=mixed beam	!	!
8AA-/L 8AAA-/	(8ccc\L 8cc\	.
8c\J 8E-\	8ee-\J 8e-\)	.
!LO:TX:t=P:problem=mixed beam	!LO:TX:b:t=rit.	!
8AA-/L 8AAA-/	8ff\L 8fT\	.
8c\J 8Dn\	16ee-\L 16e-\	.
.	16ff\JJ 16f\	.
=20	=20	=20
!LO:TX:t=P:problem=mixed beam	!	!
8GG/L 8GGG/	4.gg\ 4.g\	.
8Bn\J 8Dn\	.	.
4dn\ 4G\	.	.
.	8bn\ 8g\	.
=21	=21	=21
*	*Xtuplet	*
!	!LO:TX:b:t=a tempo	!
8e-\L 8Dn\	24cc\LL 24f#X\	p
.	24ddn\	.
.	24cc\JJ	.
16dn\L	16bn\LL	.
16c\JJ	16a-\JJ	.
!LO:TX:t=P:problem=mixed beam	!	!
8Bn\L 8D\	8dd\L 8g\	.
8DDn/J	8b\J	.
!!LO:PB:g=original
=22	=22	=22
8F#X\L 8DDn\	16an\LL 16c\	.
.	16dn\	.
8Dn\J	16a\	.
.	16bn\JJ	.
8D\L 8GG\	8g\L 8Bn\	.
8dn\J	8bn\J	.
=23	=23	=23
8e-\L 8Dn\	16an\LL 16f#X\	.
.	48cc\L	.
.	48ddn\	.
.	48cc\JJJ	.
16dn\L	16bn\LL	.
16c\JJ	16a\JJ	.
8Bn\L 8D\	8dd\L 8g\	.
8DDn\J	8bn\J	.
=24	=24	=24
8F#X\L 8DDn\	8an\L 8c\	.
8Dn\J	8dn\J	.
4D\ 4GG\	4g\ 4Bn\	.
=25	=25	=25
!LO:TX:t=P:problem=mixed beam	!	!
8C/L 8CC/	8gg\L 8ee-\ 8g\	ff
8e-\J 8G\	16ff#X\L 16f#X\	.
.	16gg\JJ 16g\	.
!LO:TX:t=P:problem=mixed beam	!	!
8Dn/L 8DDn/	8bb-\L 8ffn\ 8b-\	.
8f\J 8A-\	16aan\L 16an\	.
.	16bb-\JJ 16b-\	.
=26	=26	=26
!LO:TX:t=P:problem=mixed beam	!	!
8E-/L 8EE-/	8eee-\L 8ee-\	.
8e-\J 8G\	16bb-\L 16b-\	.
.	16gg\JJ 16g\	.
8dn\L 8E-\	8ee-\L 8e-\	.
8d-X\J 8E-\	8ee-\J 8e-\	.
=27	=27	=27
!LO:TX:t=P:problem=mixed beam	!	!
8AA-/L 8AAA-/	8ccc\L 8cc\	>
8c\J 8E-\	8ee-\J 8e-\	.
!LO:TX:t=P:problem=mixed beam	!LO:TX:b:t=rit.	!
8AA-/L 8AAA-/	8ff\L 8fT\	]
8c\J 8Dn\	16ee-\L 16e-\	.
.	16ff\JJ 16f\	.
=28	=28	=28
8E-/L 8EE-/	4.gg\ 4.g\	.
8B-/J 8E-/	.	.
8e-\ 8G\	.	.
8r	8g/ 8e-/	.
!!LO:LB:g=original
=29	=29	=29
!	!LO:TX:b:t=a tempo	!LO:DY:rj
8c-X\L 8BB-\	24a-\LL 24dn\	p
.	24b-\	.
.	24a-\JJ	.
16B-\L	16g\LL	.
16A-\JJ	16f\JJ	.
!LO:TX:t=P:problem=mixed beam	!	!
8G\L 8BB-\	8b-\L 8e-\	.
8BBB-/J	8g\J	.
=30	=30	=30
8Dn\L 8BBB-\	16f\LL 16A-\	.
.	16B-\	.
8BB-\J	16f\	.
.	16g\JJ	.
8BB-\L 8EE-\	8e-/L 8G/	.
8B-\J	8g/J	.
=31	=31	=31
8c-X\L 8BB-\	16f/LL 16dn/	.
.	48a-/L	.
.	48b-/	.
.	48a-/JJJ	.
16B-\L	16g/LL	.
16A-\JJ	16f/JJ	.
!LO:TX:t=P:problem=mixed beam	!LO:TX:b:t=poco rit.	!
8G\L 8BB-\	8b-/L 8e-/	.
8BBB-/J	8g/J	.
=32	=32	=32
8Dn\L 8BBB-\	8f/L 8A-/	.
8BB-\J	8b-/J	.
4BB-\ 4EE-\	4ee-/ 4e-/	.
=33||	=33||	=33||
!	!LO:TX:b:t=à tempo	!
16E-\LL	16ff\LL 16g\	.
16B-\	16ee-\	.
16d-\	16dd-\	.
16f\JJ	16g\JJ	.
8e-\L	8cc\L 8g\	.
8d-\J	8b-\J	.
=34	=34	=34
8d-\L 8AA-\	8b-\L 8e-\	.
8c\J	8a-\J	.
32qqd-/	32qqb-/	.
16c\LL	16a-\LL	.
16Bn\J	16g\J	.
8c\J	8a-\J	.
=35	=35	=35
(8B-\L 8C\	(8en^^\L	.
8c\J)	8cc\J 8a-\)	.
(8B-\L 8C\	(8e^^\L	.
8c\J)	8cc\J 8g\)	.
!!LO:LB:g=original
=36	=36	=36
8B-\L 8FF\	8cc\L 8g\	.
8A-\J	8f\J	.
32qqB-/	32qqg/	.
16A-\LL	16f\LL	.
16G\J	16en\J	.
8A-\J	8f\J	.
=37	=37	=37
8G-X\L 8AAn'\	16cc/LL 16e-X'/	.
.	16f'/J	.
8e-'\J	8cc/J 8g-X'/	.
(8e-\L 8BB-\	(8cc/L 8f/	.
8dn\J)	8b-/J)	.
=38	=38	=38
8F-X\L 8GG'\	16b-/LL 16d-'/	.
.	16e-'/J	.
8d-X'\J	8b-/J 8f-X'/	.
(8d-\L 8AA-\	(8b-/L 8e-/	.
8c\J)	8a-/J)	.
=39	=39	=39
8Dn\L 8FF\	16a-/LL 16B-/	<
.	16c-X/J	.
8c-X\J 8Fn\	8a-/J 8dn/	.
8cn\L 8E-\	16a-\LL 16d\	.
.	16e-\J	.
8e-\J 8c\	8cc\J 8a-\	.
*clefG2	*	*
=40	=40	=40
8a-\L 8dn\	16ff\LL 16b-\	.
.	16cc-X\J	.
8cc-X\J 8a-\	8ff\J 8ddn\	.
!LO:TX:t=P:problem=mixed beam	!	!
8ccn\L 8a-\ 8e-\	8ee-T\L	[ >
8E-/J	16aa-\L	.
.	16ccn\JJ	]]
*clefF4	*	*
=41	=41	=41
!	!	!LO:DY:t=f.
16E-\LL	16ff\LL	f
16B-\	16ee-\	.
16d-\	16dd-\	.
16f\JJ	16g\JJ	.
8e-\L	8cc\L 8g\	.
8d-\J	8b-\J	.
=42	=42	=42
8d-\L 8AA-\	8b-/L 8e-/	.
8c\J	8a-/J	.
32qqd-/	32qqb-/	.
16c\LL	16a-\LL	.
16Bn\J	16g\J	.
8c\J	8a-\J	.
!!LO:PB:g=original
=43	=43	=43
(8B-\L 8C\	(8e-^^\L	p
8c\J)	8cc\J 8a-\)	.
(8B-\L 8C\	(8e-^^\L	.
8c\J)	8cc\J 8g\)	.
=44	=44	=44
8B-\L 8FF'\	8cc\L 8g'\	.
8A-'\J	8f'\J	.
32qqB-/	32qqg/	.
16A-\LL	16f\LL	.
16G\J	16en\J	.
8A-\J	8f\J	.
=45	=45	=45
8G-X\L 8AAn'\	16cc\LL 16e-X\	.
.	16f\J	.
8e-'\J	8cc\J 8g-X\	.
(8e-\L 8BB-\	(8cc\L 8f\	.
8dn\J)	8b-\J)	.
=46	=46	=46
8F-X\L 8GG'\	16b-\LL 16d-\	.
.	16e-\J	.
8d-'\J	8b-\J 8f-X\	.
(8d-\L 8AA-\	(8b-\L 8e-\	.
8c\J)	8a-\J)	.
=47	=47	=47
8Dn\L 8FF\	16a-/LL 16B-/	<
.	16c-X/J	.
8c-X\J 8F\	8a-/J 8dn/	.
8cn\L 8E-\	16a-\LL 16d\	.
.	16e-\	.
8e-\J 8c\	16cc\ 16a-\	.
.	16ff\JJ	.
=48	=48	=48
!LO:TX:t=P:problem=mixed beam	!	!
8d-\L 8E-\	4ee-\ 4gt\	.
8EE-/J	.	.
8c\ 8E-\ 8AA-\	8aa-\ 8a-\	[
8r	8r	.
=49||	=49||	=49||
*k[f#c#g#d#]	*k[f#c#g#d#]	*
!	!	!LO:DY:rj
16B\LL 16E'\	8r	pp
16c#'\J	.	.
8B'\J	(8g#\L 8e^^\	.
8A#X'\L	8cc#\J 8gn'\)	.
8e'\J	8cc#\ 8g'\	.
!!LO:LB:g=original
=50	=50	=50
16B\LL 16E\	8r	.
16c#\J	.	.
8B\J	(8g#\L 8e^^\	.
8A#X\L	8cc#\J 8gn\)	.
8e\J	8cc#\ 8g'\	.
=51	=51	=51
16B\LL 16E'\	8r	.
16c#'\	.	.
16d#'\	16b\LL 16g#'\	.
16e'\JJ	16b\JJ 16g#'\	.
16d#\LL 16F#'\	8r	<
16e'\	.	.
16f#'\	16dd#\LL 16b'\	.
16gn'\JJ	16dd#\JJ 16b'\	[[
=52	=52	=52
16g#X\LL 16F#'\	8ee\L 8a#X'\	>
16gn'\	.	.
16f#'\	16cc#\L 16a#'\	.
16e'\JJ	16cc#\JJ 16a#'\	.
16d#\LL 16BB\	8b\L 8an\	]
16c#\J	.	.
8B\J	8b\J 8a\	.
=53	=53	=53
16B\LL 16E\	8r	.
16c#\J	.	.
8B\J	(8g#\L 8e\	.
8A#X\L	8cc#\J 8gn\)	.
8e\J	8cc#\ 8g'\	.
=54	=54	=54
16B\LL 16E\	8r	.
16c#\J	.	.
8B\J	(8g#\L 8e\	.
8A#X\L	8cc#\J 8gn\)	.
8e\J	8cc#\ 8g'\	.
=55	=55	=55
16B\LL 16E'\	8r	.
16c#'\	.	.
16d#'\	16b\LL 16g#\	<
16e'\JJ	16b\JJ 16g#\	.
16d#\LL 16D#'\	8r	.
16e#X'\	.	.
16f##X'\	16dd#\LL 16b\	.
16g#'\JJ	16dd#\JJ 16b\	[[
*clefG2	*	*
=56	=56	=56
16b/LL 16d#'/	8r	>
16a#X'/	.	.
16g#'/	16dd#\LL 16cc#\	.
16f##X'/JJ	16dd#\JJ 16cc#\	.
8g#/L	8dd#\L 8b\	]
*clefF4	*	*
8B/J 8BB/	8bb\J 8dd#\ 8a\	.
=57	=57	=57
8EE\L	8bb\L 8ee\ 8g#'\	p
8g#\J 8e\ 8B\ 8G#\	8bb\J 8ee\ 8b'\	.
4gn\ 4e\ 4A#X\ 4Gn\	8ccc#\L 8ggn\ 8a#X'\	.
.	8ccc#\J 8gg\ 8cc#'\	.
!!LO:LB:g=original
=58	=58	=58
8EE\L	8bb\L 8ee\ 8g#\	.
8g#\J 8e\ 8B\ 8G#\	8bb\J 8ee\ 8b\	.
4gn\ 4e\ 4A#X\ 4Gn\	8ccc#\L 8ggn\ 8a#X\	.
.	8ccc#\J 8gg\ 8cc#\	.
=59	=59	=59
!	!LO:TX:b:t=staccato.	!
8E\L	16bb\LL 16gg#\ 16b\	.
.	16bb\ 16gg#\ 16cc#\	.
8g#\J 8e\ 8B\ 8G#\	16bb\ 16gg#\ 16dd#\	.
.	16bb\JJ 16gg#\ 16ee\	.
8G#\L	16bb\LL 16dd#\	.
.	16bb\ 16ee#X\	.
8g#\J 8d#\ 8B\	16bb\ 16ff##X\	.
.	16bb\JJ 16gg#\	.
=60	=60	=60
8F#\L	16eee\LL 16aa#X\ 16gg#\	.
.	16eee\ 16aa#\ 16ggn\	.
8a#X\J 8e\ 8c#\	16ccc#\ 16aa#\ 16ff#\	.
.	16ccc#\JJ 16aa#\ 16ee\	.
8BB\L	16bb\LL 16aan\ 16dd#\	.
.	16bb\J 16aa\ 16cc#\	.
8an\J 8d#\ 8B\	8bb\J 8aa\ 8b\	.
=61	=61	=61
8EE\L	8bb\L 8ee\ 8g#\	f
8g#\J 8e\ 8B\ 8G#\	8bb\J 8ee\ 8b\	.
4gn\ 4e\ 4A#X\ 4Gn\	8ccc#\L 8ggn\ 8a#X\	.
.	8ccc#\J 8gg\ 8cc#\	.
=62	=62	=62
8EE\L	8bb\L 8ee\ 8g#\	.
8g#\J 8e\ 8B\ 8G#\	8bb\J 8ee\ 8b\	.
4a#X\ 4gn\ 4e\ 4c#\ 4A#X\	8eee\L 8aa#X\ 8cc#\	.
.	8eee\J 8aa#\ 8ee\	.
=63	=63	=63
8BB\L	16bb\LL 16gg#\ 16b\	.
.	16bb\ 16gg#\ 16cc#\	.
8g#\J 8e\ 8B\ 8G#\	16bb\ 16gg#\ 16dd#\	.
.	16bb\JJ 16gg#\ 16ee\	.
!LO:TX:t=P:problem=mixed beam	!	!
8BBB/L	16bb\LL 16aa\ 16ee\	.
.	16bb\ 16aa\ 16dd#\	.
8f#\J 8d#\ 8A\	16ff#\ 16dd#\ 16cc#\	.
.	16ff#\JJ 16dd#\ 16b\	.
=64	=64	=64
!LO:TX:t=P:problem=mixed beam	!	!
8EE/L	16ee\LL 16g#\	.
.	16ff#\ 16b\	.
8b\J 8e\ 8G#\	16gg#\ 16ee\	.
.	16bb\JJ 16ff#\	.
4b\ 4e\ 4G#\	4eee\ 4gg#\	.
!!LO:LB:g=original
=65||	=65||	=65||
8C#\L	16eee\LL 16gg#\	f
.	16ddd#\ 16ff#\	.
*clefG2	*	*
8g#m\J	16ccc#\ 16ee\	.
.	16eee\JJ 16gg#\	.
8b#X\L	16ddd#\LL 16ff#\	.
.	16ccc#\ 16ee\	.
*clefF4	*	*
8GG#\J	16bb#X\ 16dd#\	.
.	16ddd#\JJ 16ff#\	.
=66	=66	=66
!LO:TX:t=P:problem=mixed beam	!	!
8AA/L	16ccc#\LL 16ee\	.
.	16bb\ 16ddn\	.
8eM\J	16aa\ 16cc#\	.
.	16ccc#\JJ 16ee\	.
!LO:TX:t=P:problem=mixed beam	!	!
8g#\L	16bb\LL 16dd\	.
.	16aa\ 16cc#\	.
8EE#X/J	16gg#\ 16b\	.
.	16bb\JJ 16dd\	.
=67	=67	=67
8FF#/L	16aa\LL 16cc#\	<
.	16ccc#\ 16dd#X\	.
*clefG2	*	*
8cc#/J	16ddd#\ 16aa\	.
.	16aaa\JJ 16ccc#\	.
*	*8va	*
8aa\L	8cccc#\L 8ddd#\	.
*	*X8va	*
8a\J	8ccc#\J 8dd#\	[
*clefF4	*	*
=68	=68	=68
8GG#/L	16bb#X\LL 16dd#\	<
.	16ddd#\ 16gg#\	.
*clefG2	*	*
8dd#/J	16ggg#\ 16bb#\	.
*	*8va	*
.	16dddd#\JJ 16bb#\	.
8bb#X\L	8gggg#\L 8ggg#\	.
*	*X8va	*
!	!LO:TX:a:t=loco	!
8g#\J	8gg#\J	[
*clefF4	*	*
=69	=69	=69
8C#\L	16eee\LL 16gg#\	.
.	16ddd#\ 16ff#\	.
8g#m\J	16ccc#\ 16ee\	.
.	16eee\JJ 16gg#\	.
!LO:TX:t=P:problem=mixed beam	!	!
16b#X\LL	16ddd#\LL 16ff#\	.
16g#\J	16gg#\J	.
*	*8va	*
8GG#/J	8gggg#\J	sf
*	*X8va	*
=70	=70	=70
8C#\L	16eee\LL 16gg#\	.
.	16ddd#\ 16ff#\	.
8g#m\J	16ccc#\ 16ee\	.
.	16eee\JJ 16gg#\	.
!LO:TX:t=P:problem=mixed beam	!	!
16b#X\LL	16ddd#\LL 16ff#\	.
16g#\J	16gg#\J	.
*	*8va	*
8GG#/J	8gggg#\J	sf
*	*X8va	*
!!LO:LB:g=original
=71	=71	=71
8C#\L	16eee\LL 16gg#\	p
*	*8va	*
.	16cccc#\ 16eee\	.
8cc#\J 8g#\ 8e\	16cccc#\ 16eee\	.
.	16bbb\JJ 16ddd#\	.
8D#\L	16bbb\LL 16ddd#\	.
.	16aaa\ 16ccc#\	.
8a#X\J 8c#\	16aaa\ 16ccc#\	.
.	16fff##X\JJ 16aa#X\	.
=72	=72	=72
!LO:TX:t=P:problem=mixed beam	!	!
8GG#/L	16ggg#\LL 16bb#X\	.
.	16aaa#X\ 16ddd#\	.
8g#\J 8d#\ 8B#X\	16bbb#X\ 16ggg#\	.
.	16dddd#\JJ 16aaa#\	.
4g#\ 4d#\ 4B#\	8gggg#\ 8bbb#\	.
*	*X8va	*
!	!LO:TX:a:t=loco	!
.	8r	.
=73	=73	=73
!	!LO:TX:t=P:problem=znaki chromatyczne dotyczące górnej nuty trylu	!
8GG#/L	2gg#tt\	.
*clefG2	*	*
8dd#/J 8g#/ 8f#/	.	.
16dd#/LL 16g#/ 16f#/	.	.
16cc#/J	.	.
8b#X/J	.	.
.	4qqaa\	.
*clefF4	*	*
=74	=74	=74
8GG#/	2gg#tt\	.
*clefG2	*	*
8ee\ 8g#\ 8e\	.	.
16ee\LL 16g#\ 16e\	.	.
16dd#\J	.	.
8cc#\J	.	.
=75	=75	=75
8G#/L	2gg#TT\	.
8b#X/J 8g#/ 8d#/	.	.
8G#/L	.	.
8cc#/J 8g#/ 8e/	.	.
=76	=76	=76
8G#/L	2gg#TT\	.
8b/J 8g#/ 8d#/	.	.
8ddd#^^\L	.	.
8eee^^\J	.	.
*clefF4	*	*
=77	=77	=77
!LO:TX:a:t=P:problem=mixed beam	!	!
8GG#/L	2gg#tt\	<
*clefG2	*	*
8dd#\J 8g#\ 8f#\	.	.
16dd#\LL 16g#\ 16f#\	.	.
16cc#\J	.	.
8b#X\J	.	.
!!LO:LB:g=original
=78	=78	=78
*clefF4	*	*
8GG#/	2gg#TT\	<
*clefG2	*	*
8ee\ 8g#\ 8e\	.	.
16ee\LL 16g#\ 16e\	.	.
16dd#\J	.	.
8cc#\J	.	.
=79	=79	=79
8G#\L	2gg#tt\	.
8b#X\J 8g#\ 8d#\	.	.
*clefF4	*	*
8GG#\L	.	.
*clefG2	*	*
8cc#\J 8g#\ 8e\	.	.
=80	=80	=80
8G#/L	2gg#tt\	.
8ddn/J 8g#/ 8e#X/	.	.
*clefF4	*	*
8GG#\L	.	.
*clefG2	*	*
8dd#X\J 8g#\ 8f#\	.	[
*clefF4	*	*
=81	=81	=81
8C#\L	16eee\LL 16gg#\	f
.	16ddd#\ 16ff#\	.
8g#m\J	16ccc#\ 16ee\	.
.	16eee\JJ 16gg#\	.
!LO:TX:t=P:problem=mixed beam	!	!
8b#X\L	16ddd#\LL 16ff#\	.
.	16ccc#\ 16ee\	.
8GG#/J	16bb#X\ 16dd#\	.
.	16ddd#\JJ 16ff#\	.
=82	=82	=82
8AA\L	16ccc#\LL 16ee\	.
.	16bb\ 16ddn\	.
8eM\J	16aa\ 16cc#\	.
.	16ccc#\JJ 16ee\	.
!LO:TX:t=P:problem=mixed beam	!	!
8g#\L	16bb\LL 16dd\	.
.	16aa\ 16cc#\	.
8EE#X/J	16gg#\ 16b\	.
.	16bb\JJ 16dd\	.
=83	=83	=83
8FF#/L	16aa\LL 16cc#\	<
.	16bb\ 16dd#X\	.
*clefG2	*	*
8cc#/J	16ddd#\ 16aa\	.
.	16aaa\JJ 16ccc#\	.
*	*8va	*
8aa\L	8cccc#\L 8ddd#\	.
*	*X8va	*
8a\J	8ccc#\J 8dd#\	[
!!LO:PB:g=original
=84	=84	=84
*clefF4	*	*
8GG#/L	16bb#X\LL 16dd#\	<
.	16ddd#\ 16gg#\	.
*clefG2	*	*
8dd#/J	16ggg#\ 16bb#\	.
*	*8va	*
.	16dddd#\JJ 16ddd#\	.
8bb#X\L	8gggg#\L 8ggg#\	[
*	*X8va	*
!	!LO:TX:a:t=loco	!
8g#\J	8gg#\J	.
*clefF4	*	*
=85	=85	=85
8C#\L	16eee\LL 16gg#\	.
.	16ddd#\ 16ff#\	.
8g#m\J	16ccc#\ 16ee\	.
.	16eee\JJ 16gg#\	.
!LO:TX:t=P:problem=mixed beam	!	!
16b#X\LL	16ddd#\LL 16ff#\	.
16g#\J	16gg#\J	.
*	*8va	*
8GG#/J	8gggg#\J	sf
*	*X8va	*
=86	=86	=86
8BB\L	16dddn\LL 16ff#\	.
.	16ccc#\ 16ee\	.
!LO:TX:t=P:problem=kasownik do mordentu	!	!
8f#M\J	16bb\ 16ddn\	.
.	16ddd\JJ 16ff#\	.
16a#X\LL	16ccc#\LL 16ee\	.
16f#\J	16ff#\J	.
*	*8va	*
8FF#/J	8ffff#\J	sf
*	*X8va	*
=87	=87	=87
8FF#\L	16ccc#\LL 16ee\	p
.	16fff#\ 16aa\	.
8an\J 8d#\	16fff#\ 16aa\	.
.	16eee\JJ 16gg#\	.
!LO:TX:t=P:problem=mixed beam	!	!
8GG#/L	16eee\LL 16gg#\	.
.	16ddd#\ 16ff#\	.
8g#\J 8f#\	16ddd#\ 16ff#\	.
.	16bb#X\JJ 16dd#\	.
=88	=88	=88
!LO:TX:t=P:problem=mixed beam	!	!
8CC#/L	16ccc#\LL 16ee\	.
.	16ddd#\ 16gg#\	.
8g#\J 8eM\	16eee\ 16ccc#\	.
.	16ggg#\JJ 16ddd#\	.
*	*8va	*
4e\ 4c#\	4cccc#\ 4eee\	.
*	*X8va	*
=89||	=89||	=89||
*k[b-e-a-d-g-]	*k[b-e-a-d-g-]	*
!LO:TX:t=P:problem=mixed beam	!	!LO:DY:rj
8DD-/L	8aa-\L 8dd-\ 8f\	ff
8f\J 8d-\ 8A-\ 8F\	8aa-\J 8dd-\ 8a-\	.
4en\ 4d-\ 4B-\ 4Gn\ 4En\	8bb-\L 8een\ 8gn\	.
.	8bb-\J 8ee\ 8b-\	.
!!LO:LB:g=original
=90	=90	=90
!LO:TX:t=P:problem=mixed beam	!	!
8DD-/L	8aa-\L 8dd-\ 8f\	.
8f\J 8d-\ 8A-\ 8F\	8aa-\J 8dd-\ 8a-\	.
4en\ 4d-\ 4B-\ 4Gn\ 4En\	8bb-\L 8een\ 8gn\	.
.	8bb-\J 8ee\ 8b-\	.
=91	=91	=91
!LO:TX:t=P:problem=mixed beam	!	!
8D-/L 8DD-/	16aa-\LL 16ff\ 16a-\	.
.	16aa-\ 16ff\ 16b-\	.
8f\J 8d-\ 8A-\	16aa-\ 16ff\ 16cc\	.
.	16aa-\JJ 16ff\ 16dd-\	.
!LO:TX:t=P:problem=mixed beam	!	!
8F/L 8FF/	16aa-\LL 16cc\	.
.	16aa-\ 16ddn\	.
8f\J 8c\	16aa-\ 16een\	.
.	16aa-\JJ 16ff\	.
=92	=92	=92
!LO:TX:t=P:problem=mixed beam	!	!
8E-/L 8EE-/	16ddd-\LL 16ggn\ 16ff\	.
.	16ddd-\ 16gg\ 16ff\	.
8gn\J 8d-\ 8B-\	16bb-\ 16gg\ 16ee-X\	.
.	16bb-\JJ 16gg\ 16dd-\	.
!LO:TX:t=P:problem=mixed beam	!	!
8AA-/L	16aa-\LL 16gg-X\ 16cc\	.
.	16aa-\J 16gg-\ 16b-\	.
8g-X\J 8c\ 8A-\	8aa-\J 8gg-\ 8a-\	.
=93	=93	=93
!LO:TX:t=P:problem=mixed beam	!	!
8D-/L 8DD-/	8aa-\L 8dd-\ 8f\	.
8f\J 8d-\ 8A-\ 8F\	8aa-\J 8dd-\ 8a-\	.
4en\ 4d-\ 4B-\ 4Gn\ 4En\	8bb-\L 8een\ 8gn\	.
.	8bb-\J 8ee\ 8b-\	.
=94	=94	=94
!LO:TX:t=P:problem=mixed beam	!	!
8D-/L 8DD-/	8aa-\L 8dd-\ 8f\	.
8f\J 8d-\ 8A-\ 8F\	8aa-\J 8dd-\ 8a-\	.
4gn\ 4en\ 4d-\ 4B-\ 4Gn\	8ddd-\L 8ggn\ 8b-\	.
.	8ddd-\J 8gg\ 8dd-\	.
=95	=95	=95
8AA-\L	16aa-\LL 16ff\ 16a-\	.
.	16aa-\ 16ff\ 16b-\	.
8f\J 8d-\ 8A-\ 8F\	16aa-\ 16ff\ 16cc\	.
.	16aa-\JJ 16ff\ 16dd-\	.
!LO:TX:t=P:problem=mixed beam	!	!
8AA-/L 8AAA-/	16aa-\LL 16gg-\ 16dd-\	.
.	16aa-\ 16gg-\ 16cc\	.
8e-\J 8c\ 8A-\ 8G-\	16ee-\ 16cc\ 16b-\	.
.	16ee-\JJ 16cc\ 16a-\	.
=96	=96	=96
!LO:TX:t=P:problem=mixed beam	!	!
8DD-/L	16dd-\LL 16f\	.
.	16ee-\ 16a-\	.
8f\J 8d-\ 8A-\ 8F\	16ff\ 16dd-\	.
.	16aa-\JJ 16ee-\	.
4f\ 4d-\ 4A-\ 4F\	4ddd-\ 4ff\	.
!!LO:LB:g=original
=97||	=97||	=97||
!LO:TX:t=P:problem=mixed beam	!	!
8BB-/L	16ddd-\LL 16ff\	p
.	16ccc\ 16ee-\	.
8fm\J	16bb-\ 16dd-\	.
.	16ddd-\JJ 16ff\	.
!LO:TX:t=P:problem=mixed beam	!	!
8an\L	16ccc\LL 16ee-\	.
.	16bb-\ 16dd-\	.
8FF/J	16aan\ 16cc\	.
.	16ccc\JJ 16ee-\	.
=98	=98	=98
!LO:TX:t=P:problem=mixed beam	!	!
8GG-/L	16bb-\LL 16dd-\	.
.	16aa-\ 16cc-X\	.
8d-M\J	16gg-\ 16b-\	.
.	16bb-\JJ 16dd-\	.
!LO:TX:t=P:problem=mixed beam	!	!
8f\L	16aa-\LL 16cc-\	.
.	16gg-\ 16b-\	.
8DDn/J	16ff\ 16a-\	.
.	16aa-\JJ 16cc-\	.
=99	=99	=99
8EE-/L	16gg-\LL 16b-\	.
.	16bb-\ 16cc\	.
*clefG2	*	*
8b-/J	16ccc\ 16gg-\	.
.	16ggg-\JJ 16bb-\	.
*	*8va	*
8gg-\L	8bbb-\L 8ccc\	.
*	*X8va	*
8g-\J	8bb-\J 8cc\	.
*clefF4	*	*
=100	=100	=100
!LO:TX:t=P:problem=mixed beam	!	!
8FF/L	16aan\LL 16cc\	.
.	16ccc\ 16ff\	.
*clefG2	*	*
8cc\J	16fff\ 16aa\	.
*	*8va	*
.	16cccc\JJ 16ccc\	.
!LO:TX:t=P:problem=mixed beam	!	!
8aan\L	8ffff\L 8fff\	.
*	*X8va	*
!	!LO:TX:a:t=loco	!
8f/J	8ff\J	.
*clefF4	*	*
=101	=101	=101
8BB-\L	16ddd-\LL 16ff\	.
.	16ccc\ 16ee-\	.
8fm\J	16bb-\ 16dd-\	.
.	16ddd-\JJ 16ff\	.
!LO:TX:t=P:problem=mixed beam	!	!
16an\LL	16ccc\LL 16ee-\	.
16f\J	16ff\J	.
*	*8va	*
8FF/J	8ffff\J	sf
*	*X8va	*
=102	=102	=102
8BB-\L	16ddd-\LL 16ff\	.
.	16ccc\ 16ee-\	.
8fm\J	16bb-\ 16dd-\	.
.	16ddd-\JJ 16ff\	.
!LO:TX:t=P:problem=mixed beam	!	!
16an\LL	16ccc\LL 16ee-\	.
16f\J	16ff\J	.
*	*8va	*
8FF/J	8ffff\J	sf
*	*X8va	*
=103	=103	=103
8BB-\L	16ddd-\LL 16ff\	p
.	16bbb-\ 16ddd-\	.
8b-\J 8f\ 8d-\	16bbb-\ 16ddd-\	.
.	16aaa-\JJ 16ccc\	.
8C\L	16aaa-\LL 16ccc\	.
.	16gggn\ 16bb-\	.
8gn\J 8c\ 8B-\	16ggg\ 16bb-\	.
.	16eeen\JJ 16ggn\	.
!!LO:LB:g=original
=104	=104	=104
!LO:TX:t=P:problem=mixed beam	!	!
8FF/L	16fff\LL 16aan\	.
.	16gggn\ 16ccc\	.
*	*8va	*
8f\J 8c\ 8An\	16aaan\ 16fff\	.
.	16eeeen\JJ 16ggg\	.
8f\ 8c\ 8A\	8ffff\ 8aaa\	.
*	*X8va	*
8r	8r	.
=105	=105	=105
!LO:TX:t=P:problem=mixed beam	!	!
8FF/L	2fftt\	p
*clefG2	*	*
8cc\J 8f\ 8e-\	.	.
16cc\LL 16f\ 16e-\	.	.
16b-\J	.	.
8an\J	.	.
*clefF4	*	*
=106	=106	=106
!LO:TX:t=P:problem=mixed beam	!	!
8FF/L	2fftt\	.
*clefG2	*	*
8dd-\J 8f\ 8d-\	.	.
16dd-\LL 16f\ 16d-\	.	.
16cc\J	.	.
8b-\J	.	.
=107	=107	=107
8F/L	2ffTT\	<
8a-/J 8f/ 8c/	.	.
8F/L	.	.
8a-/J 8f/ 8c/	.	.
=108	=108	=108
8F/L	2ffTT\	[[
8a-/J 8f/ 8c/	.	.
8ccc^^\L	.	.
8fff^^\J	.	.
*clefF4	*	*
=109	=109	=109
!LO:TX:t=P:problem=mixed beam	!	!
8FF/L	2fftt\	.
*clefG2	*	*
8cc\J 8f\ 8e-\	.	.
16cc\LL 16f\ 16e-\	.	.
16b-\J	.	.
8an\J	.	.
=110	=110	=110
8F/L	2fftt\	.
8dd-/J 8f/ 8d-/	.	.
16dd-/LL 16f/ 16d-/	.	.
16cc/J	.	.
8b-/J	.	.
*clefF4	*	*
=111	=111	=111
8F\L	2fftt\	<
8an\J 8f\ 8c\	.	.
!!LO:LB:g=original
!LO:TX:t=P:problem=mixed beam	!	!
8FF/L	.	.
8b-\J 8f\ 8d-\	.	.
=112	=112	=112
8F\L	2fftt\	[[
8bn\J 8f\ 8dn\	.	.
!LO:TX:t=P:problem=mixed beam	!	!
8FF/L	.	.
8cc\J 8f\ 8e-\	.	.
=113	=113	=113
8BB-\L	16ddd-\LL 16ff\	f
.	16ccc\ 16ee-\	.
8fm\J	16bb-\ 16dd-\	.
.	16ddd-\JJ 16ff\	.
!LO:TX:t=P:problem=mixed beam	!	!
8an\L	16ccc\LL 16ee-\	.
.	16bb-\ 16dd-\	.
8FF/J	16aan\ 16cc\	.
.	16ccc\JJ 16ee-\	.
=114	=114	=114
!LO:TX:t=P:problem=mixed beam	!	!
8GG-/L	16bb-\LL 16dd-\	.
.	16aa-\ 16cc-X\	.
8d-M\J	16gg-\ 16b-\	.
.	16bb-\JJ 16dd-\	.
!LO:TX:t=P:problem=mixed beam	!	!
8f\L	16aa-\LL 16cc-\	.
.	16gg-\ 16b-\	.
8DDn/J	16ff\ 16a-\	.
.	16aa-\JJ 16cc-\	.
=115	=115	=115
!LO:TX:t=P:problem=mixed beam	!	!
8EE-/L	16gg-\LL 16b-\	<
.	16bb-\ 16cc\	.
*clefG2	*	*
8b-\J	16ccc\ 16gg-\	.
*	*8va	*
.	16ggg-\JJ 16bb-\	.
8gg-\L	8bbb-\L 8ccc\	[
*	*X8va	*
!	!LO:TX:a:t=loco	!
8g-\J	8bb-\J 8cc\	.
*clefF4	*	*
=116	=116	=116
8FF/L	16aan\LL 16cc\	<
.	16ccc\ 16ff\	.
*clefG2	*	*
8cc/J	16fff\ 16aa\	.
*	*8va	*
.	16cccc\JJ 16aa\	.
!LO:TX:t=P:problem=mixed beam	!	!
8aan\L	8ffff\L 8fff\	.
*	*X8va	*
!	!LO:TX:a:t=loco	!
8f/J	8ff\J	[
*clefF4	*	*
=117	=117	=117
8BB-\L	16ddd-\LL 16ff\	.
.	16ccc\ 16ee-\	.
8fm\J	16bb-\ 16dd-\	.
.	16ddd-\JJ 16ff\	.
!LO:TX:t=P:problem=mixed beam	!	!
16an\LL	16ccc\LL 16ee-\	.
16f\J	16ff\J	.
*	*8va	*
8FF/J	8ffff\J	sf
*	*X8va	*
=118	=118	=118
!LO:TX:t=P:problem=mixed beam	!	!
8BB-/L 8BBB-/	16ddd-\LL 16dd-\	.
.	16ccc\ 16cc\	.
16f\L 16F\	16bb-\ 16b-\	.
16g-\JJ 16G-\	16ccc\JJ 16cc\	.
!LO:TX:t=P:problem=mixed beam	!	!
8f\L 8F\	16aan\LL 16an\	.
.	16ccc\J 16cc\	.
8FF/J 8FFF/	8fff\J 8ff\	.
!!LO:LB:g=original
=119	=119	=119
!LO:TX:t=P:problem=mixed beam	!	!
8AA-/L 8AAA-/	16ccc-X\LL 16cc-X\	.
.	16bb-\ 16b-\	.
16e-\L 16E-\	16aa-\ 16a-\	.
16f-X/JJ 16F-X/	16bb-\JJ 16b-\	.
!LO:TX:t=P:problem=mixed beam	!	!
8e-\L 8E-\	16ggn\LL 16gn\	.
.	16bb-\J 16b-\	.
8EE-/J 8EEE-/	8eee-\J 8ee-\	.
=120	=120	=120
!LO:TX:t=P:problem=mixed beam	!	!
8GG-/L 8GGG-/	16bb-\LL 16b-\	.
.	16aa-\ 16a-\	.
16d-/L 16D-/	16gg-X\ 16g-X\	.
16e-\JJ 16E-\	16aa-\JJ 16a-\	.
!LO:TX:t=P:problem=mixed beam	!	!
8d-\L 8D-\	16ff\LL 16f\	.
.	16aa-\J 16a-\	.
8DD-/J 8DDD-/	8ddd-\J 8dd-\	.
=121	=121	=121
!LO:TX:t=P:problem=mixed beam	!	!
8EE-/L 8EEE-/	8ddd-\L 8dd-\	f
8e-\J 8E-\	8ggn\J 8gn\	.
!LO:TX:t=P:problem=mixed beam	!	!
8EE-/L 8EEE-/	8ccc\L 8cc\	<
8d-\J 8D-\	8bb-\J 8b-\	.
=122	=122	=122
!LO:TX:t=P:problem=mixed beam	!	!
8EE-/L 8EEE-/	8bb-\L 8b-\	.
8c\J 8C\	8aa-\J 8a-\	.
8e-\L 8E-\	16aa-\LL 16a-\	.
.	16ggn\J 16gn\	.
8en\J 8En\	8aa-\J 8a-\	.
=123	=123	=123
!LO:TX:t=P:problem=mixed beam	!	!
8EE-/L 8EEE-/	8eee-\L 8ee-\	.
8f\J 8F\	8aan\J 8an\	.
!LO:TX:t=P:problem=mixed beam	!	!
8EE-/L 8EEE-/	8ddd-\L 8dd-\	.
8e-\J 8E-\	8ccc\J 8cc\	.
=124	=124	=124
!LO:TX:t=P:problem=mixed beam	!	!
8EE-/L 8EEE-/	8ccc\L 8cc\	.
8Bn/J 8BBn/	8bb-\J 8b-\	.
8f\L 8F\	16bb-\LL 16b-\	.
.	16aan\J 16an\	.
8f#X\J 8F#X\	8bb-\J 8b-\	.
=125	=125	=125
!LO:TX:t=P:problem=mixed beam	!	!
8EE-/L 8EEE-/	8fff\L 8ff\	.
8a-/J 8A-/	8bbn\J 8bn\	.
8g-\L 8G-\	8eee-\L 8ee-\	.
8f\J 8F\	8dddn\J 8ddn\	[[
!!LO:PB:g=original
=126	=126	=126
!LO:TX:t=P:problem=mixed beam	!	!
8EE-/L 8EEE-/	8aaa-\L 8aa-\	.
8bn\J 8Bn\	8dddn\J 8ddn\	.
8b-X\L 8B-X\	8gggn\L 8ggn\	.
8a-\J 8A-\	8fff\J 8ff\	.
=127	=127	=127
*	*8va	*
8EE-/ 8EEE-/	16aaaa-\LL 16aaa-\	ff
.	16ffff\ 16fff\	.
*clefG2	*	*
16bbn\LL 16bn\	16ddddn\ 16dddn\	.
16aa-\JJ 16a-\	16bbbn\JJ 16bbn\	.
*	*X8va	*
!	!LO:TX:a:t=loco	!
16ff/LL 16f/	16aaa-\LL 16aa-\	.
16ddn/ 16dn/	16fff\ 16ff\	.
16b/ 16Bn/	16ddd\ 16ddn\	.
16a-/JJ 16A-/	16ccc\JJ 16cc\	.
*clefF4	*	*
=128	=128	=128
16f\LL 16F\	16aa-\LL 16a-\	.
16dn\ 16Dn\	16ff\ 16f\	.
16Bn\ 16BBn\	16ddn\ 16dn\	.
16A-\JJ 16AA-\	16bn\JJ 16Bn\	.
16F\LL 16FF\	16cc\LL 16c\	.
16E-\ 16EE-\	16ee-\ 16e-\	.
16C\ 16CC\	16aa-\ 16a-\	.
16AA-\JJ 16AAA-\	16ccc\JJ 16cc\	.
=129||	=129||	=129||
*k[b-e-a-d-]	*k[b-e-a-d-]	*
8EE-/L 8EEE-X/	16fff\LL 16ff\	ff
.	16eee-\ 16ee-\	.
8E-/J 8BB-/ 8EE-/	16ddd-\ 16dd-\	.
.	16gg\JJ 16g\	.
8e-\L 8G\ 8E-\	8ccc\L 8cc\	.
8d-\J 8G\ 8D-\	8bb-\J 8b-\	.
=130	=130	=130
8AA-/L 8AAA-/	8bb-\L 8b-\	.
8c/J 8E-/ 8C/	8aa-\J 8a-\	.
8B-\L 8D-\ 8BB-\	16aa-\LL 16a-\	.
.	16gg\J 16g\	.
8A-\J 8C\ 8AA-\	8aa-\J 8a-\	.
=131	=131	=131
8CC/L 8CCC/	16ddd-\LL 16dd-\	.
.	16ccc\ 16cc\	.
8C/J 8GG/ 8EE-/	16bb-\ 16b-\	.
.	16een\JJ 16en\	.
8c\L 8E-\ 8C\	8aa-\L 8a-\	.
8B-\J 8E-\ 8BB-\	8gg\J 8g\	.
!!LO:LB:g=original
=132	=132	=132
8FF/L 8FFF/	8gg\L 8g\	.
8A-/J 8C/ 8AA-/	8ff\J 8f\	.
8G\L 8BB-\ 8GG\	16ff\LL 16f\	.
.	16een\J 16en\	.
8F\J 8AA-\ 8FF\	8ff\J 8f\	.
=133	=133	=133
!LO:TX:t=P:problem=mixed beam	!	!
8AAn/L 8AAAn/	16ee-\LL 16e-\	.
.	16ff\ 16f\	.
8e-\J 8E-\	16gg-X\ 16g-X\	.
.	16ccc\JJ 16cc\	.
!LO:TX:t=P:problem=mixed beam	!	!
8BB-/L 8BBB-/	16ccc\LL 16cc\	.
.	16bb-\ 16b-\	.
8dn\J 8Dn\	16ff\ 16f\	.
.	16ddn\JJ 16dn\	.
=134	=134	=134
!LO:TX:t=P:problem=mixed beam	!	!
8GG/L 8GGG/	16dd-\LL 16d-X\	.
.	16ee-\ 16e-\	.
8d-X\J 8D-X\	16ff-X\ 16f-X\	.
.	16bb-\JJ 16b-\	.
!LO:TX:t=P:problem=mixed beam	!	!
8AA-/L 8AAA-/	16bb-\LL 16b-\	.
.	16aa-\ 16a-\	.
8c\J 8C\	16ee-\ 16e-\	.
.	16cc\JJ 16c\	.
=135	=135	=135
!LO:TX:t=P:problem=mixed beam	!	!
8FF/L 8FFF/	16b-\LL 16B-\	.
.	16cc-X\ 16c-X\	.
8c-X\J 8C-X\	16ddn\ 16dn\	.
.	16aa-\JJ 16a-\	.
!LO:TX:t=P:problem=mixed beam	!	!
8EE-/L 8EEE-/	16dd\LL 16d\	<
.	16ee-\ 16e-\	.
8cn/J 8Cn/	16aa-\ 16a-\	.
.	16ccc\JJ 16ccn\	.
=136	=136	=136
!LO:TX:t=P:problem=mixed beam	!	!
8Dn\L 8DDn\	16bb-\LL 16b-\	.
.	16ccc-X\ 16cc-X\	.
8a-\J 8A-\	16dddn\ 16ddn\	.
.	16fff\JJ 16ff\	.
!LO:TX:t=P:problem=mixed beam	!	!
8E-\L 8EE-\	16ddd\LL 16dd\	.
.	16eee-\ 16ee-\	.
8e-\J 8E-\	16aaa-\ 16aa-\	.
.	16cccn\JJ 16ccn\	[[
=137	=137	=137
8EE-/L 8EEE-/	16fff\LL 16ff\	.
!	!LO:TX:b:t=tutta forza	!
.	16eee-\ 16ee-\	.
8E-/J 8BB-/ 8EE-/	16ddd-\ 16dd-\	.
.	16gg\JJ 16g\	.
8e-\L 8G\ 8E-\	8ccc\L 8cc\	.
8d-\J 8G\ 8D-\	8bb-\J 8b-\	.
=138	=138	=138
8AA-/L 8AAA-/	8bb-\L 8b-\	.
8c/J 8E-/ 8C/	8aa-\J 8a-\	.
8B-\L 8D-\ 8BB-\	16aa-\LL 16a-\	.
.	16gg\J 16g\	.
8A-\J 8C\ 8AA-\	8aa-\J 8a-\	.
!!LO:LB:g=original
=139	=139	=139
8CC/L 8CCC/	16ddd-\LL 16dd-\	.
.	16ccc\ 16cc\	.
8C/J 8GG/ 8CC/	16bb-\ 16b-\	.
.	16een\JJ 16en\	.
8c\L 8E-\ 8C\	8aa-\L 8a-\	.
8B-\J 8E-\ 8BB-\	8gg\J 8g\	.
=140	=140	=140
8FF/L 8FFF/	8gg\L 8g\	.
8A-/J 8C/ 8AA-/	8ff\J 8f\	.
8G/L 8BB-/ 8GG/	16ff\LL 16f\	.
.	16een\J 16en\	.
8F/J 8AA-/ 8FF/	8ff\J 8f\	.
=141	=141	=141
!LO:TX:t=P:problem=mixed beam	!	!
8AAn/L 8AAAn/	16ee-\LL 16e-\	.
.	16ff\ 16f\	.
8e-\J 8E-\	16gg-X\ 16g-X\	.
.	16ccc\JJ 16cc\	.
!LO:TX:t=P:problem=mixed beam	!	!
8BB-/L 8BBB-/	16ccc\LL 16cc\	.
.	16bb-\ 16b-\	.
8dn\J 8Dn\	16ff\ 16f\	.
.	16ddn\JJ 16dn\	.
=142	=142	=142
!LO:TX:t=P:problem=mixed beam	!	!
8GG/L 8GGG/	16dd-\LL 16d-X\	.
.	16ee-\ 16e-\	.
8d-/J 8D-X/	16ff-X\ 16f-X\	.
.	16bb-\JJ 16b-\	.
!LO:TX:t=P:problem=mixed beam	!	!
8AA-/L 8AAA-/	16bb-\LL 16b-\	.
.	16aa-\ 16a-\	.
8c\J 8C\	16ee-\ 16e-\	.
.	16cc\JJ 16c\	.
=143	=143	=143
!LO:TX:t=P:problem=mixed beam	!	!
8FF/L 8FFF/	16b-/LL< 16B-/	.
.	16cc-X/ 16c-X/	.
8c-X\J 8C-X\	16ddn/ 16dn/	.
.	16aa-/JJ 16a-/	.
!LO:TX:t=P:problem=mixed beam	!	!
8EE-/L 8EEE-/	16dd\LL 16d\	.
.	16ee-\ 16e-\	.
8cn\J 8Cn\	16aa-\ 16a-\	.
.	16ccc\JJ 16ccn\	.
=144	=144	=144
!LO:TX:t=P:problem=mixed beam	!	!
8EE-/L 8EEE-/	16fff\LL 16ff\	.
.	16eee-\ 16ee-\	.
8e-\J 8d-\ 8B-\ 8E-\	16ddd-\ 16dd-\	.
.	16gg\JJ 16g\	.
*clefG2	*	*
8ee-\	16bb-\LL 16b-\	.
.	16ccc\ 16cc\	.
8r	16ddd-\ 16dd-\	.
.	16dddn\JJ 16ddn\	.
!!LO:LB:g=original
*clefF4	*	*
=145	=145	=145
8AA-\L	8eee-\L 8aa-\ 8cc\	ppp
*clefG2	*	*
8cc\J 8a-\ 8e-\ 8c\	8eee-\J 8aa-\ 8ee-\	.
4bn\ 4a-\ 4f\ 4d-\ 4Bn\	8fff\L 8bbn\ 8ddn\	.
.	8fff\J 8bb\ 8ff\	.
*clefF4	*	*
=146	=146	=146
8AA-\L	8eee-\L 8aa-\ 8cc\	.
*clefG2	*	*
8cc\J 8a-\ 8e-\ 8c\	8eee-\J 8aa-\ 8ee-\	.
4bn\ 4a-\ 4f\ 4dn\ 4Bn\	8fff\L 8bbn\ 8ddn\	.
.	8fff\J 8bb\ 8ff\	.
=147	=147	=147
8A-/L	16eee-\LL 16ccc\ 16ee-\	.
.	16eee-\ 16ccc\ 16ff\	.
8cc/J 8a-/ 8e-/	16eee-\ 16ccc\ 16gg\	.
.	16eee-\JJ 16ccc\ 16aa-\	.
8c/L	16ggg\LL 16eee-\ 16gg\	.
.	16ggg\ 16eee-\ 16aan\	.
8cc/J 8g/ 8e-/	16ggg\ 16eee-\ 16bbn\	.
.	16ggg\JJ 16eee-\ 16ccc\	.
=148	=148	=148
!LO:TX:t=P:problem=mixed beam	!	!
8B-/L	16aaa-\LL 16dddn\ 16ccc\	.
.	16aaa-\ 16ddd\ 16bbn\	.
8ddn\J 8b-\ 8a-\ 8f\	16fff\ 16ddd\ 16bb-X\	.
.	16fff\JJ 16ddd\ 16aa-\	.
8E-/L	16eee-\LL 16ddd-X\ 16gg\	.
.	16eee-\J 16ddd-\ 16ff\	.
8dd-X/J 8g/ 8e-/ 8B-/	8eee-\J 8ddd-\ 8ee-\	.
*clefF4	*	*
=149	=149	=149
8AA-/L	8eee-\L 8aa-\ 8cc\	.
*clefG2	*	*
8cc/J 8a-/ 8e-/ 8c/	8eee-\J 8aa-\ 8ee-\	.
4bn\ 4a-\ 4f\ 4dn\ 4Bn\	8fff\L 8bbn\ 8ddn\	.
.	8fff\J 8bb\ 8ff\	.
*clefF4	*	*
=150	=150	=150
!LO:TX:t=P:problem=brak zmiany klucza	!	!
8AA-/L	8eee-\L 8aa-\ 8cc\	.
*clefG2	*	*
8cc/J 8e-/ 8c/	8eee-\J 8aa-\ 8ee-\	.
4ddn/ 4b-/ 4a-/ 4f/ 4dn/	8aaa-\L 8dddn\ 8ff\	.
.	8aaa-\J 8ddd\ 8aa-\	.
=151	=151	=151
8E-/L	16eee-\LL 16ccc\ 16ee-\	<
.	16eee-\ 16ccc\ 16ff\	.
8cc/J 8a-/ 8e-/	16eee-\ 16ccc\ 16gg\	.
.	16eee-\JJ 16ccc\ 16aa-\	.
4dd-\ 4b-\ 4e-\	16eee-\LL 16ddd-\ 16aa-\	.
.	16eee-\ 16ddd-\ 16gg\	.
.	16bb-\ 16gg\ 16ff\	.
.	16bb-\JJ 16gg\ 16ee-\	[
!!LO:LB:g=original
*clefF4	*	*
=152	=152	=152
8EE-\L	16aa-\LL 16ff\ 16cc\	<
.	16aa-\ 16ee-\ 16cc\	.
8c\J 8A-\ 8E-\	16ee-\ 16cc\ 16b-\	.
.	16ee-\JJ 16cc\ 16a-\	.
4d-\ 4B-\ 4E-\	16ee-\LL 16dd-\ 16a-\	.
.	16ee-\ 16dd-\ 16g\	.
.	16b-\ 16g\ 16f\	.
.	16b-\JJ 16g\ 16e-\	.
=153	=153	=153
8EEE-/L	16a-/LL 16f/ 16c/	.
.	16a-/ 16e-/ 16c/	.
!	!LO:TX:b:t=↓	!
8C/J 8AA-/ 8EE-/	16e-/ 16c/ 16B-/	.
.	16e-/JJ 16c/ 16A-/	.
4D-\ 4BB-\ 4EE-\	16e-/LL 16d-/ 16A-/	.
.	16e-/ 16d-/ 16G/	.
.	16B-/ 16G/ 16F/	.
.	16B-/JJ 16G/ 16E-/	.
=154	=154	=154
8AAA-\	8A-</ 8E-</ 8C</	ff
16CC\LL	16c</LL 16C</	.
16EE-\JJ	16e-</JJ 16E-</	.
16AA-\LL	16a-\LL 16A-\	.
16BB-\	16b-\ 16B-\	.
16C\	16cc\ 16c\	.
16E-\JJ	16ee-\JJ 16e-\	.
=155	=155	=155
16A-\LL	16aa-\LL 16a-\	.
16B-\	16bb-\ 16b-\	.
16c\	16ccc\ 16cc\	.
16e-\JJ	16eee-\JJ 16ee-\	.
*clefG2	*	*
*	*8va	*
16a-\LL	16aaa-\LL 16aa-\	.
16b-\	16bbb-\ 16bb-\	.
16cc\	16cccc\ 16ccc\	.
16ee-\JJ	16eeee-\JJ 16eee-\	.
=156	=156	=156
4aa-\	4aaaa-\ 4aaa-\	.
*	*X8va	*
!	!LO:TX:a:t=loc(o)	!
4r	4r	.
*clefF4	*	*
=157	=157	=157
!LO:TX:t=P:problem=brak zmiany klucza	!	!
8qqA-\ 8qqE-\ 8qqAA-\	8qqcc\ 8qqa-\ 8qqe-\ 8qqc\	.
4A-\ 4E-\ 4AA-\	4cc\ 4a-\ 4e-\ 4c\	.
4r	4r	.
=158	=158	=158
8qqAA-\ 8qqAAA-\	8qqA-/	.
4AA-\ 4AAA-\	4A-/	.
4r	4r	.
==	==	==
*-	*-	*-
!!!system-decoration: [(s1,s2)]
!!!RDF**kern: > = above
!!!RDF**kern: < = below
!!!RDF**dynam: p = p.
!!!RDF**dynam: pp = pp.
!!!RDF**dynam: ppp = ppp.
!!!RDF**dynam: f = f.
!!!RDF**dynam: ff = ff.
!!!EED: Leszek Kubiak
!!!EST: 2021-05-19
!!!AIN: 2 piano
!!!ENC: Krzysztof Stępień
!!!END: 2021-04-29
